third_party/noto/noto_2/emoji_u2b05.svg

<svg enable-background="new 0 0 128 128" version="1.1" viewBox="0 0 128 128" xmlns="http://www.w3.org/2000/svg"><path d="m116 4h-104c-4.4 0-8 3.6-8 8v104c0 4.4 3.6 8 8 8h104c4.4 0 8-3.6 8-8v-104c0-4.4-3.6-8-8-8z" fill="#427687"/><path d="m109.7 4h-98.2c-4.1 0-7.5 3.4-7.5 7.5v97.9c0 4.2 3.4 7.5 7.5 7.5h98.1c4.2 0 7.5-3.4 7.5-7.5v-97.9c0.2-4.1-3.3-7.5-7.4-7.5z" fill="#8CAFBF"/><path d="m47.4 91-24-24c-1.8-1.6-1.8-4.4 0-6l24-24c2.6-2.3 6.6-0.4 6.6 3v14c0 1.1 0.9 2 2 2h46c2.2 0 4 1.8 4 4v8c0 2.2-1.8 4-4 4h-46c-1.1 0-2 0.9-2 2v14c0 3.4-4 5.3-6.6 3z" fill="#FAFAFA"/><path d="m39.7 12.9c0-2.3-1.6-3-10.8-2.7-7.7 0.3-11.5 1.2-13.8 4s-2.9 8.5-3 15.3c0 4.8 0 9.3 2.5 9.3 3.4 0 3.4-7.9 6.2-12.3 5.4-8.7 18.9-10.6 18.9-13.6z" enable-background="new" fill="#B4E1ED" opacity=".5"/></svg>

<?xml version="1.0" encoding="utf-8"?>
<!-- Generator: Adobe Illustrator 25.2.3, SVG Export Plug-In . SVG Version: 6.00 Build 0)  -->
<svg version="1.1" id="Layer_1" xmlns="http://www.w3.org/2000/svg" xmlns:xlink="http://www.w3.org/1999/xlink" x="0px" y="0px"
	 viewBox="0 0 128 128" style="enable-background:new 0 0 128 128;" xml:space="preserve">
<g>
	<g>
		<path style="fill:#427687;" d="M116,4H12c-4.4,0-8,3.6-8,8v104c0,4.4,3.6,8,8,8h104c4.4,0,8-3.6,8-8V12C124,7.6,120.4,4,116,4z"/>
	</g>
	<g>
		<g>
			<path style="fill:#8CAFBF;" d="M109.7,4H11.5C7.4,4,4,7.4,4,11.5v97.9c0,4.2,3.4,7.5,7.5,7.5h98.1c4.2,0,7.5-3.4,7.5-7.5V11.5
				C117.3,7.4,113.8,4,109.7,4z"/>
		</g>
	</g>
</g>
<path style="fill:#FAFAFA;" d="M47.4,91l-24-24c-1.8-1.6-1.8-4.4,0-6l24-24c2.6-2.3,6.6-0.4,6.6,3v14c0,1.1,0.9,2,2,2h46
	c2.2,0,4,1.8,4,4v8c0,2.2-1.8,4-4,4H56c-1.1,0-2,0.9-2,2v14C54,91.4,50,93.3,47.4,91z"/>
<g>
	<path style="opacity:0.5;fill:#B4E1ED;enable-background:new    ;" d="M39.7,12.9c0-2.3-1.6-3-10.8-2.7c-7.7,0.3-11.5,1.2-13.8,4
		s-2.9,8.5-3,15.3c0,4.8,0,9.3,2.5,9.3c3.4,0,3.4-7.9,6.2-12.3C26.2,17.8,39.7,15.9,39.7,12.9z"/>
</g>
</svg>
